X:116
T:Donegal Lass
M:6/8
L:1/8
S:from Paul Kotapish
K:D
A||:"A"Ace aed|"E"cdB "A"A2F|"G"GBd G2E|"D"FAc F2A
  |"A"Ace aed|"E"cdB "A"A2(a|"A"a)ed cdB|1"G"ABG "A"A2A:||2"G"ABG "G"A2F
||"G"GBd G2E|"D"FAd dcd|"A"~e3 ecA|efe ecA
|"G"GBd G2E|"D"FAd F2(a|"A"a)ed "D"cdB|1"G"ABG "A"A2F:||2"G"ABG "A"A2A|
|
